svg/remove-trash.svg

<?xml version="1.0" encoding="UTF-8"?>
<svg xmlns="http://www.w3.org/2000/svg" xmlns:xlink="http://www.w3.org/1999/xlink" width="32" height="32" viewBox="0 0 32 32">
<path fill-rule="nonzero" fill="rgb(0%, 0%, 0%)" fill-opacity="1" d="M 13.441406 1.28125 C 12.382812 1.285156 11.527344 2.140625 11.519531 3.199219 L 11.519531 4.480469 L 5.121094 4.480469 C 4.78125 4.5 4.515625 4.78125 4.515625 5.121094 C 4.515625 5.460938 4.78125 5.742188 5.121094 5.761719 L 5.757812 5.761719 L 5.757812 28.800781 C 5.761719 29.859375 6.621094 30.71875 7.679688 30.71875 L 21.785156 30.71875 C 22.882812 31.550781 24.222656 32 25.601562 32 C 29.121094 32 32 29.121094 32 25.601562 C 32 22.296875 29.460938 19.554688 26.238281 19.234375 L 26.238281 5.761719 L 26.878906 5.761719 C 27.226562 5.753906 27.507812 5.46875 27.507812 5.121094 C 27.507812 4.773438 27.226562 4.488281 26.878906 4.480469 L 20.480469 4.480469 L 20.480469 3.199219 C 20.476562 2.140625 19.617188 1.285156 18.558594 1.28125 Z M 13.441406 2.558594 L 18.558594 2.558594 C 18.730469 2.558594 18.890625 2.625 19.011719 2.746094 C 19.132812 2.867188 19.199219 3.027344 19.199219 3.199219 L 19.199219 4.480469 L 12.800781 4.480469 L 12.800781 3.199219 C 12.800781 3.03125 12.867188 2.867188 12.988281 2.746094 C 13.109375 2.625 13.269531 2.558594 13.441406 2.558594 M 12.160156 8.960938 C 12.332031 8.960938 12.492188 9.027344 12.613281 9.148438 C 12.734375 9.269531 12.800781 9.429688 12.800781 9.601562 L 12.800781 25.601562 C 12.800781 25.769531 12.734375 25.933594 12.613281 26.050781 C 12.492188 26.171875 12.328125 26.238281 12.160156 26.238281 C 11.992188 26.238281 11.828125 26.171875 11.707031 26.054688 C 11.589844 25.933594 11.523438 25.773438 11.519531 25.601562 L 11.519531 9.601562 C 11.519531 9.433594 11.585938 9.269531 11.707031 9.148438 C 11.828125 9.027344 11.988281 8.960938 12.160156 8.960938 M 16 8.960938 C 16.167969 8.960938 16.332031 9.027344 16.453125 9.148438 C 16.574219 9.269531 16.640625 9.429688 16.640625 9.601562 L 16.640625 25.601562 C 16.640625 25.769531 16.570312 25.933594 16.449219 26.050781 C 16.265625 26.230469 15.992188 26.285156 15.753906 26.1875 C 15.519531 26.089844 15.363281 25.859375 15.359375 25.601562 L 15.359375 9.601562 C 15.359375 9.429688 15.425781 9.269531 15.546875 9.148438 C 15.667969 9.027344 15.828125 8.960938 16 8.960938 M 19.839844 8.960938 C 20.007812 8.960938 20.171875 9.027344 20.292969 9.148438 C 20.414062 9.269531 20.480469 9.429688 20.480469 9.601562 L 20.480469 21.769531 C 19.789062 22.683594 19.359375 23.769531 19.238281 24.910156 C 19.226562 24.929688 19.210938 24.941406 19.199219 24.960938 L 19.199219 9.601562 C 19.199219 9.433594 19.265625 9.269531 19.386719 9.148438 C 19.503906 9.027344 19.667969 8.960938 19.839844 8.960938 M 25.601562 20.480469 C 28.410156 20.480469 30.71875 22.785156 30.71875 25.601562 C 30.71875 28.414062 28.410156 30.71875 25.601562 30.71875 C 22.78125 30.71875 20.476562 28.414062 20.476562 25.601562 C 20.476562 22.785156 22.78125 20.480469 25.601562 20.480469 M 23.355469 22.71875 C 23.1875 22.722656 23.027344 22.792969 22.910156 22.914062 C 22.789062 23.03125 22.71875 23.195312 22.71875 23.363281 C 22.71875 23.53125 22.789062 23.691406 22.910156 23.808594 L 24.703125 25.601562 L 22.910156 27.390625 C 22.789062 27.507812 22.71875 27.671875 22.71875 27.839844 C 22.71875 28.011719 22.789062 28.171875 22.910156 28.289062 C 23.027344 28.410156 23.191406 28.480469 23.359375 28.480469 C 23.527344 28.480469 23.691406 28.414062 23.808594 28.289062 L 25.601562 26.496094 L 27.390625 28.289062 C 27.507812 28.410156 27.667969 28.480469 27.839844 28.480469 C 28.007812 28.480469 28.167969 28.410156 28.285156 28.289062 C 28.402344 28.167969 28.46875 28.007812 28.476562 27.839844 C 28.46875 27.671875 28.402344 27.515625 28.289062 27.390625 L 26.492188 25.601562 L 28.285156 23.808594 C 28.402344 23.6875 28.46875 23.527344 28.476562 23.359375 C 28.46875 23.195312 28.402344 23.035156 28.289062 22.914062 C 28.171875 22.789062 28.007812 22.71875 27.835938 22.71875 C 27.667969 22.71875 27.503906 22.789062 27.386719 22.914062 L 25.601562 24.703125 L 23.808594 22.914062 C 23.6875 22.792969 23.527344 22.722656 23.355469 22.71875 M 23.355469 22.71875 "/>
</svg>

<svg role="img" viewBox="0 0 32 32" xmlns="http://www.w3.org/2000/svg"><path d="M13.441 1.281A1.93 1.93 0 0 0 11.52 3.2v1.28h-6.4a.642.642 0 0 0 0 1.282h.637V28.8a1.925 1.925 0 0 0 1.922 1.918h14.105A6.3 6.3 0 0 0 25.602 32C29.122 32 32 29.121 32 25.602c0-3.305-2.54-6.047-5.762-6.368V5.762h.64a.644.644 0 0 0 .63-.64.644.644 0 0 0-.63-.642H20.48V3.2a1.927 1.927 0 0 0-1.92-1.92Zm0 1.278h5.118a.635.635 0 0 1 .64.64V4.48h-6.398V3.2a.64.64 0 0 1 .64-.641m-1.28 6.402a.635.635 0 0 1 .64.64v16a.642.642 0 0 1-1.281 0v-16a.64.64 0 0 1 .64-.64m3.84 0a.64.64 0 0 1 .64.64v16a.645.645 0 0 1-.887.586.65.65 0 0 1-.394-.585v-16a.64.64 0 0 1 .188-.454.64.64 0 0 1 .453-.187m3.84 0a.64.64 0 0 1 .64.64V21.77a6.3 6.3 0 0 0-1.242 3.14c-.011.02-.027.031-.039.05V9.603a.64.64 0 0 1 .64-.641m5.763 11.52c2.808 0 5.117 2.304 5.117 5.12 0 2.813-2.309 5.118-5.117 5.118-2.82 0-5.125-2.305-5.125-5.117 0-2.817 2.304-5.122 5.125-5.122m-2.247 2.239a.64.64 0 0 0-.445.195.62.62 0 0 0 0 .895l1.793 1.793-1.793 1.789a.623.623 0 0 0 0 .898.63.63 0 0 0 .45.191.6.6 0 0 0 .449-.19l1.793-1.794 1.789 1.793a.62.62 0 0 0 .895 0 .7.7 0 0 0 .19-.45.7.7 0 0 0-.187-.448l-1.797-1.79 1.793-1.792a.7.7 0 0 0 .192-.45.7.7 0 0 0-.188-.445.62.62 0 0 0-.902 0l-1.785 1.79-1.793-1.79a.66.66 0 0 0-.454-.195m0 0" fill="rgb(0%, 0%, 0%)"/></svg>
